frontend/public/svg/emojis/confused-emoji.svg

<svg width="159" height="155" viewBox="0 0 159 155" fill="none" xmlns="http://www.w3.org/2000/svg">
<path d="M107.161 91.8809C109.289 92.4727 111.652 92.6847 113.458 93.7986C114.549 94.471 115.548 96.803 115.174 97.9142C114.801 99.0254 112.451 100.43 111.338 100.162C109.049 99.5461 106.653 99.4332 104.316 99.8312C101.98 100.229 99.7568 101.129 97.8008 102.468C92.9823 105.678 89.3464 110.376 87.4479 115.845C86.7708 117.673 86.418 120.281 83.578 119.44C80.8159 118.623 81.3637 116.045 81.7023 113.994C83.5516 102.799 95.831 92.3406 107.161 91.8809Z" fill="black"/>
<path d="M108.734 60.4001C108.034 62.2094 107.658 64.0187 106.714 65.4535C104.593 68.674 99.8746 68.4744 98.6408 64.8706C97.7239 62.1932 97.8573 58.9895 98.2528 56.1204C98.3916 55.1135 100.702 53.7356 102.024 53.7329C103.818 53.8284 105.52 54.56 106.824 55.7968C107.89 56.8321 108.099 58.7499 108.734 60.4001Z" fill="black"/>
<path d="M45.648 63.7801C45.6609 59.789 47.5149 57.0181 50.1917 56.9889C52.6463 56.9625 54.9419 59.8837 55.1477 63.2959C55.3549 66.7392 53.0486 69.6536 50.0955 69.678C47.2176 69.7017 45.6358 67.6033 45.648 63.7801Z" fill="black"/>
<path d="M50.5281 37.793C52.1993 39.0721 53.4168 40.0031 54.6336 40.9335C53.6856 41.8958 52.9001 43.2805 51.7483 43.7423C48.2065 45.1196 44.5974 46.3175 40.9349 47.3312C40.3411 47.5025 38.8324 46.6953 38.8426 46.3744C38.8798 45.1501 38.9902 43.2629 39.7499 42.841C43.1052 40.9775 46.6954 39.5366 50.5281 37.793Z" fill="black"/>
<path d="M107.561 33.9194C110.531 35.2697 113.606 36.4431 116.406 38.0838C117.18 38.5368 117.138 40.3808 117.47 41.5868C116.281 41.9003 114.984 42.6837 113.923 42.4413C110.492 41.6119 107.107 40.604 103.782 39.4219C103.393 39.2632 103.046 39.0169 102.769 38.7021C102.491 38.3873 102.29 38.0124 102.181 37.607C102.191 37.1837 102.302 36.7691 102.506 36.3979C102.709 36.0267 102.999 35.7098 103.351 35.4741C104.502 34.9012 105.875 34.7882 107.157 34.4835L107.561 33.9194Z" fill="black"/>
<path d="M2.95582 55.9029C-4.05401 83.4539 2.08432 107.759 21.213 128.154C21.7114 128.681 22.2186 129.208 22.7265 129.716C33.0015 139.991 45.8002 146.335 55.9419 150.75C60.2939 152.651 82.6283 154.959 88.6704 154.059C124.582 148.697 148.214 128.442 156.445 94.5564C158.017 87.9188 158.799 81.1188 158.777 74.2976C158.815 58.2289 152.049 39.5478 138.097 25.5566C136.661 24.3688 135.229 23.1384 133.845 21.946C130.842 19.3654 127.74 16.6933 124.494 14.4147C99.6958 -3.03808 73.931 -3.13625 47.917 6.119C24.3638 14.4899 9.23839 31.2439 2.95582 55.9029ZM48.0172 14.3661C70.8425 4.88063 93.7443 3.20672 116.081 17.4133C120.165 20.0135 131.054 28.8136 132.768 30.1354L132.878 30.2167L132.969 30.3176C141.683 39.5586 151.661 56.4554 151.441 73.8249C151.369 81.2521 150.363 88.6408 148.449 95.8173C142.775 116.44 129.21 131.47 106.978 141.75C84.3787 152.571 51.9677 141.631 43.3442 135.938C33.8124 129.422 25.4724 121.315 18.6887 111.972C8.04933 96.9089 5.66235 75.2565 11.3788 55.4628C14.0545 46.3235 18.7304 37.8941 25.0676 30.7859C31.4048 23.6777 39.2444 18.0689 48.0179 14.3661H48.0172Z" fill="black"/>
</svg>

<svg xmlns="http://www.w3.org/2000/svg" width="159" height="155" fill="none" viewBox="0 0 159 155"><path fill="#000" d="M107.161 91.88c2.128.593 4.491.805 6.297 1.919 1.091.672 2.09 3.004 1.716 4.115s-2.723 2.516-3.836 2.248a16.42 16.42 0 0 0-13.537 2.306 26.53 26.53 0 0 0-10.353 13.377c-.677 1.828-1.03 4.436-3.87 3.595-2.762-.817-2.214-3.395-1.876-5.446 1.85-11.195 14.129-21.653 25.459-22.113m1.573-31.481c-.7 1.81-1.076 3.619-2.02 5.054-2.121 3.22-6.84 3.02-8.073-.583-.917-2.678-.784-5.881-.388-8.75.139-1.008 2.449-2.385 3.771-2.388a7.56 7.56 0 0 1 4.8 2.064c1.066 1.035 1.275 2.953 1.91 4.603m-63.086 3.38c.013-3.991 1.867-6.762 4.544-6.791 2.454-.026 4.75 2.895 4.956 6.307.207 3.443-2.1 6.358-5.053 6.382-2.877.024-4.46-2.075-4.447-5.898m4.88-25.987c1.671 1.28 2.889 2.21 4.106 3.14-.948.963-1.734 2.348-2.886 2.81a113 113 0 0 1-10.813 3.588c-.594.171-2.103-.636-2.092-.957.037-1.224.147-3.111.907-3.533 3.355-1.864 6.945-3.304 10.778-5.048m57.033-3.873c2.97 1.35 6.045 2.523 8.845 4.164.774.453.732 2.297 1.064 3.503-1.189.313-2.486 1.097-3.547.854a101 101 0 0 1-10.141-3.02 2.72 2.72 0 0 1-1.601-1.814 2.64 2.64 0 0 1 1.17-2.133c1.151-.573 2.524-.686 3.806-.99z"/><path fill="#000" d="M2.956 55.903c-7.01 27.55-.872 51.856 18.257 72.251a79 79 0 0 0 1.514 1.562c10.275 10.275 23.073 16.619 33.215 21.034 4.352 1.901 26.686 4.209 32.728 3.309 35.912-5.362 59.544-25.617 67.775-59.503a86.7 86.7 0 0 0 2.332-20.258c.038-16.07-6.728-34.75-20.68-48.741a279 279 0 0 1-4.252-3.611c-3.003-2.58-6.105-5.253-9.351-7.531C99.696-3.038 73.931-3.136 47.917 6.119 24.364 14.489 9.238 31.244 2.956 55.903m45.061-41.537c22.825-9.485 45.727-11.16 68.064 3.047 4.084 2.6 14.973 11.4 16.687 12.722l.11.082.091.1c8.714 9.242 18.692 26.138 18.472 43.508a88.7 88.7 0 0 1-2.992 21.992c-5.674 20.623-19.239 35.653-41.471 45.933-22.6 10.821-55.01-.119-63.634-5.812a100.7 100.7 0 0 1-24.655-23.966c-10.64-15.063-13.027-36.715-7.31-56.51a64.18 64.18 0 0 1 36.639-41.096"/></svg>
